X: 7
T: Come West Along The Road
Z: ceili
S: https://thesession.org/tunes/474#setting53748
R: reel
M: 4/4
L: 1/8
K: Gmaj
|:"G"d2BG dGBG | "G"GABd "C"efge | "G"~d2BG dGBG |1 "Am"ABcd "D"edBc :|2 "Am"ABcd "D"edBd ||
"G"g2bg "C"egdg | "C"egdg edBd |"G"~g2bg egdB | "D"ABcd "(C)"edBd |
"G"g2bg "C"egdg | "C"egdg edBd | "G"gabg "C"efge | "D"dega "C"bage ||

